X:669
T:Mr. James Hamilton
R:Strathspey
B:The Athole Collection
M:C
L:1/8
K:D Minor
G|F<D D>E F>GA>F|E<cG<c F<GE<C|F<D D>E F>GA>F|
E<d d>^c d<DD:|
A|d>ef>d a>df>d|~c>deg c>ge>c|d>ef>d a>df>d|A<g a/g/f/e/ d2 d>A|
d>ef>d a>df>d|~c>de>g c>ge>c|d<fe<g f<agfg>e d2d||
